X: 236
T: As I Roved Out One Morning   #2
R: air, march
%S: s:3 b:14(6+4+4)
B: O'Neill's 236
O: F.O'Neill
Z: 1997 by John Chambers <jc@trillian.mit.edu>
N: Compacted via repeats and multiple endings [JC]
N: Compacted by using labels and play order [JC]
P: Play A1A2 BA3
Q: "With spirit"
M: 2/4
L: 1/8
K: G
"^A"[|] D | GG A(B/c/) | d(d/c/) A(B/c/) |1 d(B/G/) FG | F3 :|2 d(c/A/) GG | G3 |]
"^B"[| (B/c/) | (dg d)(c/B/) | (cd c)(D/E/) | FG (A/B/c/A/) | F3 |]
"^A3"[| (d/c/) | (BA/).B/ (cB/).c/ | d(d/c/) A(B/c/) | d(c/A/) GG | G3 |]
